X: 1
T:The Marquis of Huntly's Farewell
M:C
L:1/8
Q:80
C:
S:Strathspey
K:HP
|: {g}G3/2{d}B/2{g}A3/2e/2{g}B/2{d}G3/2{d}A2|
{gBd}B/2e3/2{g}e3/2f/2((3gfe){g}((3dcB)|
{g}G3/2{d}B/2{g}A3/2e/2{g}B/2{d}G3/2{d}A2|  !
{gBG}B3/2e/2{g}d/2c/2B/2A/2{Gdc}d2{g}d/2a3/2:| [|
f3/2a/2{dc}d3/2a/2{fg}f3/2a/2g/2f/2e/2d/2|
{gcd}c/2e3/2{g}A3/2e/2{gcd}c/2e3/2{g}d/2c/2B/2A/2|  !
{gfg}f3/2a/2{dc}d3/2a/2{fg}f3/2a/2g/2f/2e/2d/2|
{gBd}B3/2e/2{g}d/2c/2B/2A/2{Gdc}d2{g}d/2a3/2|
f3/2a/2{dc}d3/2a/2((3efg){ag}a2|  !
{BG}B/2e3/2{g}e3/2f/2{a}((3gfe){g}((3dcB)|
{g}G3/2{d}B/2{g}A3/2e/2{g}B/2{d}G3/2{d}A2|
{gBG}B3/2e/2{g}d/2c/2B/2A/2{Gdc}d2{g}d/2e3/2|]  !
